X:13
T: Kedves anyám!
O: Trunk (Bákó), 1929
Q: 1/4=138
M:4/4
L:1/4
K:Eb
c/c/c/c/ e/e/d/c/ | B<B F z | 
e/e/d/c/ B/B/c/c/ | G<G G/z/ z | 
B/A/G/F/ G/F/F/E/ | F<E B, z | 
F/E/D/C/ B,/B,/F/F/ | C<C C/z/ z |

